X:1
T:Botswana, 77.76.76
T:Botswana, 77.76.76
T:John Harrison Tenney, 1890
T:Public Domain Courtesy of the Cyber Hymnal™
C:John Harrison Tenney, 1890
Z:Public Domain
Z:Courtesy of the Cyber Hymnal™
%%score ( 1 2 ) 3
L:1/8
Q:1/4=95
M:3/4
K:F
V:1 treble 
V:2 treble 
V:3 bass 
V:1
 C>[CF] | [FA]3 [Gd] [Ac]>[FA] | [EB]4 C>[CE] | [EG]3 [EB] [EA]>[EG] | F4 [Fc]2 | %5
 [Fd]3 [FB] [Ff]>[Fd] | [Fd] [Fc]3 F>[FA] | [EG]3 z [FG]>[FA] | [EG]3 z [Fc]2 | %9
 [Fd]3 [FB] [Ff]>[Fd] | [Fd] [Fc]3 F>[FA] | G3 z [EG]>[EA] | F4 |] %13
V:2
 C3/2 x/ | x6 | x4 C3/2 x/ | x6 | F4 x2 | x6 | x4 F3/2 x/ | x6 | x6 | x6 | x4 F3/2 x/ | G3 x3 | %12
 F4 |] %13
V:3
 [F,A,]>[F,A,] | [F,C]3 [F,=B,] [F,C]>[F,C] | [G,C]4 [C,C]>[C,C] | [C,C]3 [C,G,] [C,C]>[C,C] | %4
 [F,A,]4 [F,A,]2 | [B,,B,]3 [B,,D] [B,,D]>[B,,B,] | [F,B,] [F,A,]3 [F,A,]>[F,C] | %7
 [C,C]3 z [G,=B,]>[G,B,] | [C,C]3 z [F,A,]2 | [B,,B,]3 [B,,D] [B,,D]>[B,,B,] | %10
 [F,B,] [F,A,]3 [F,A,]>[F,C] | [G,=B,]3 z [C,_B,]>[C,C] | [F,A,]4 |] %13

